X:1
T: The Sod of Turf
C:
R:Jig
Q:180
K:G
M:6/8
L:1/16
d2|:d2c2A2 A2G2E2|c4A2 A2B2c2|d2c2A2 A2G2F2|D2G2G2 G2B2c2|
d2c2A2 A2G2E2|c4A2 A2B2c2|d2c2A2 f2g2a2|g4G2 G4d2:|
|:d2c2A2 f4g2|a2a2g2 f4d2|d2c2A2 f2g2a2|g4G2 G2B2c2|
d2c2A2 f4g2|a2a2g2 f4d2|d2c2A2 f2g2a2|1g4G2 G4d2:|2g4G2 G4||
